X:76
T:Mona the Dancer
M:6/8
L:1/8
Q:120
C: Paul Gitlitz 1999
R:Jig
N:Mona loves to twirl.
K:Bm
"Bm"dcB dcB|"Em"edc "Bm"dcB|"Bm"dcB dcB|dcd "F#m"f2e|!
"Bm"dcB "A"edc|"F#m"fed "G"gfe|"D"agf "G"gfe|1"A"dec "Bm"B3:|2"D"dec "Bm"B2A|!
|:"D"F"^"AF "^"eF"^"d|"Bm"F"^"dF "^"BFA|"D"F"^"AF "^"eF"^"d|"Bm"BAF "Em(A)"EDE|! 
"D"F"^"AF "^"eF"^"d|"Bm"F"^"dF "^"BFA|"D"ABd fed|"Bm"BAF "D"D3:|]
